X: 36
T: Je ne demande aultre degre
N: Derived from Bus3029-Je_ne_demande_aultre_degre.krn
C: Antoine Busnoys
%%abc-version 2.0
%%abcx-abcm2ps-target-version 5.9.1 (29 Sep 2008)
%%abc-creator hum2abc beta
%%abcx-conversion-date 2019/02/16 20:26:07
%%abc-edited-by Jesse Rodin
%%abc-edited-by Chris Gage 04-20-2015
%%abcx-initial-encoding-date 2015/05/05/
%%humdrum-veritas 415368433
%%humdrum-veritas-data 3519049003
%%linebreak <none>
%%barnumbers 0
L: 1/4
M: 2/1
Q: 1/2=120
%%staves [1 2 3 4]
V: 1 clef=treble
V: 2 clef=treble-8
V: 3 clef=bass
V: 4 clef=bass
K: F
[V:1] z8 | 
[V:2] F6G2 | 
[V:3] z8 | 
[V:4] F,6E,2 | 
[V:1] z8 | 
[V:2] A4B4 | 
[V:3] z8 | 
[V:4] F,4G,4 | 
[V:1] z8 | 
[V:2] G4F4 | 
[V:3] z8 | 
[V:4] E,4z4 | 
[V:1] z8 | 
[V:2] z4c4 | 
[V:3] z8 | 
[V:4] A,6G,F, | 
[V:1] z8 | 
[V:2] B4A4 | 
[V:3] z8 | 
[V:4] G,F,E,D,C,3D, | 
[V:1] z8 | 
[V:2] G8 | 
[V:3] z8 | 
[V:4] E,2F,4E,2 | 
[V:1] z8 | 
[V:2] F4G2A2- | 
[V:3] F,,4C,2A,,2 | 
[V:4] F,4E,2C,2 | 
[V:1] z8 | 
[V:2] A2GABAGF | 
[V:3] F,,2C,4=B,,2 | 
[V:4] F,2E,2D,4 | 
[V:1] z8 | 
[V:2] E3CD2C2- | 
[V:3] C,4G,,2A,,2- | 
[V:4] C,3A,,B,,2C,2- | 
[V:1] z8 | 
[V:2] C2F4E2 | 
[V:3] A,,B,,C,2D,2B,,2 | 
[V:4] C,2A,,2G,,4 | 
[V:1] C6D2 | 
[V:2] F4z4 | 
[V:3] C,4F,4 | 
[V:4] F,,8 | 
[V:1] E4F4 | 
[V:2] G4A4 | 
[V:3] E,4D,4 | 
[V:4] z8 | 
[V:1] D4C4 | 
[V:2] B4c4- | 
[V:3] G,4A,4 | 
[V:4] z8 | 
[V:1] z4F4- | 
[V:2] c4A4 | 
[V:3] F,8 | 
[V:4] z8 | 
[V:1] F2E2E2D2 | 
[V:2] G8 | 
[V:3] C8 | 
[V:4] C,8 | 
[V:1] F4E2C2 | 
[V:2] F4C2F2- | 
[V:3] A,8 | 
[V:4] D,4A,,4 | 
[V:1] D4C3A, | 
[V:2] F2G2A4 | 
[V:3] F,8 | 
[V:4] B,,4F,,2F,2 | 
[V:1] B,2C4B,A, | 
[V:2] G2E2F4 | 
[V:3] z8 | 
[V:4] E,2C,2D,4 | 
[V:1] G,8 | 
[V:2] E4z4 | 
[V:3] C,8 | 
[V:4] E,8- | 
[V:1] z4G4 | 
[V:2] C6D2 | 
[V:3] C4G,2B,2- | 
[V:4] E,8 | 
[V:1] G4A4 | 
[V:2] E4F4 | 
[V:3] B,2C2A,2G,F, | 
[V:4] z8 | 
[V:1] B6AG | 
[V:2] G4G4 | 
[V:3] E,8 | 
[V:4] E,,8 | 
[V:1] A8 | 
[V:2] F2EDC2F2- | 
[V:3] z2C,2F,3G, | 
[V:4] F,,8- | 
[V:1] A4A4- | 
[V:2] FGA3Bc2- | 
[V:3] A,3B,C2F,2- | 
[V:4] F,,8 | 
[V:1] A2F2G4 | 
[V:2] c2d2e4 | 
[V:3] F,E,D,2C,4 | 
[V:4] z4C,4 | 
[V:1] F2c4BA | 
[V:2] f4e2dc | 
[V:3] z8 | 
[V:4] D,2F,2C,2G,2- | 
[V:1] BAGFE3F | 
[V:2] d4c2c2- | 
[V:3] B,4C3B, | 
[V:4] G,F,G,2A,3G, | 
[V:1] G2F4E2 | 
[V:2] c2A2G4 | 
[V:3] G,2C6 | 
[V:4] E,2F,2C,4 | 
[V:1] F3GA2D2- | 
[V:2] F4z4 | 
[V:3] A,4F,2B,2- | 
[V:4] D,6B,,2- | 
[V:1] D2CB,D3C | 
[V:2] z8 | 
[V:3] B,A,F,4E,D, | 
[V:4] B,,2A,,G,,F,,4 | 
[V:1] A,4z4 | 
[V:2] z8 | 
[V:3] C,4z4 | 
[V:4] z8 | 
[V:1] z8 | 
[V:2] c8 | 
[V:3] F,,4A,,4 | 
[V:4] F,4E,2F,2- | 
[V:1] z8 | 
[V:2] d4c4 | 
[V:3] B,,4A,,4- | 
[V:4] F,2G,2A,4 | 
[V:1] C8 | 
[V:2] A4F4 | 
[V:3] A,,8 | 
[V:4] F,2C3B,A,2- | 
[V:1] D4C4 | 
[V:2] B4A4 | 
[V:3] z4F,4- | 
[V:4] A,2G,2A,4 | 
[V:1] A,4F,4 | 
[V:2] F2c3BA2- | 
[V:3] F,2A,3G,F,2 | 
[V:4] z8 | 
[V:1] B,4A,4 | 
[V:2] A2G2A2F2 | 
[V:3] D,2E,2C,2F,2- | 
[V:4] z4A,,4- | 
[V:1] F,2C3B,A,2- | 
[V:2] c4A4 | 
[V:3] F,2E,2E,4 | 
[V:4] A,,8 | 
[V:1] A,2G,2A,2D2- | 
[V:2] B4A2B2- | 
[V:3] z8 | 
[V:4] z8 | 
[V:1] DCB,A,B,4 | 
[V:2] BAGFG4 | 
[V:3] z8 | 
[V:4] z8 | 
[V:1] A,6F,2- | 
[V:2] A4z4 | 
[V:3] C,3D,E,2F,2 | 
[V:4] A,,3B,,C,2D,2- | 
[V:1] F,G,A,2B,2C2- | 
[V:2] z8 | 
[V:3] D,3C,B,,2A,,2- | 
[V:4] D,E,F,2G,2A,2- | 
[V:1] C2B,A,G,4 | 
[V:2] z8 | 
[V:3] A,,2B,,2C,4 | 
[V:4] A,2G,F,E,4 | 
[V:1] F,4z4 | 
[V:2] F8 | 
[V:3] F,,8 | 
[V:4] F,2D,3C,A,,2- | 
[V:1] z8 | 
[V:2] E4C4 | 
[V:3] z8 | 
[V:4] A,,B,,C,4F,,2- | 
[V:1] z8 | 
[V:2] F4E4 | 
[V:3] z8 | 
[V:4] F,,G,,A,,3B,,C,2 | 
[V:1] F8 | 
[V:2] D8 | 
[V:3] z8 | 
[V:4] D,C,=B,,A,,=B,,3A,, | 
[V:1] E4C4 | 
[V:2] C3DE2F2- | 
[V:3] A,,8 | 
[V:4] C,4z4 | 
[V:1] F4E4 | 
[V:2] FGABG2c2- | 
[V:3] F,,4C,4 | 
[V:4] z8 | 
[V:1] D8 | 
[V:2] c2=BA=B4 | 
[V:3] G,,8 | 
[V:4] z4G,4 | 
[V:1] C6D2 | 
[V:2] c3de2f2 | 
[V:3] z8 | 
[V:4] A,2A,3G,F,2 | 
[V:1] E2F2G2A2- | 
[V:2] c2d2B2c2- | 
[V:3] G,2A,2G,2E,2 | 
[V:4] E,2D,2E,2C,2 | 
[V:1] AFF4E2 | 
[V:2] cFA2G4 | 
[V:3] A,2C3B,G,2 | 
[V:4] F,4C,4 | 
[V:1] F2A3GA2 | 
[V:2] F4z4 | 
[V:3] A,4D,4 | 
[V:4] z4F,4 | 
[V:1] B3AFGA2- | 
[V:2] z8 | 
[V:3] D6C2- | 
[V:4] G,3A,B,2C2 | 
[V:1] AGFED4 | 
[V:2] F4G3A | 
[V:3] C4B,4- | 
[V:4] A,4B,2G,2- | 
[V:1] z4F4 | 
[V:2] B2c2A4 | 
[V:3] B,2A,6 | 
[V:4] G,2A,2F,4 | 
[V:1] G3AB2c2 | 
[V:2] B2G4A2 | 
[V:3] G,6F,2- | 
[V:4] E,2E,4D,E, | 
[V:1] A4B2G2- | 
[V:2] F4E2E2- | 
[V:3] F,4G,3A, | 
[V:4] F,4z4 | 
[V:1] G2A2F4 | 
[V:2] E2DEF2A2- | 
[V:3] B,2C2A,2F,2 | 
[V:4] z8 | 
[V:1] E2E4DE | 
[V:2] A2GFG4 | 
[V:3] C4z2C2 | 
[V:4] z4C,4 | 
[V:1] F2A3Bc2- | 
[V:2] F2c3de2- | 
[V:3] B,2A,4G,F, | 
[V:4] D,2F,3E,C,D, | 
[V:1] cBAGB2A2- | 
[V:2] edcBd2c2- | 
[V:3] G,4F,4 | 
[V:4] E,3D,B,,2F,2- | 
[V:1] AFG3DE2 | 
[V:2] cAB2G4 | 
[V:3] z4C4- | 
[V:4] F,2B,,2C,4 | 
[V:1] F8- | 
[V:2] F8- | 
[V:3] C2A,3B,C2 | 
[V:4] F,,8- | 
[V:1] F8 |]  
[V:2] F8 |]  
[V:3] C,8 |]  
[V:4] F,,8 |]  



